Papirus/22x22/apps/ibus-anthy.svg

<svg width="22" height="22" version="1.1" xmlns="http://www.w3.org/2000/svg">
 <g transform="translate(-1,-1)">
  <rect transform="matrix(0,-1,-1,0,0,0)" x="-22" y="-22" width="20" height="20" rx="1" ry="1" style="fill:#2095f2"/>
  <path d="m3 2c-0.554 0-1 0.446-1 1v0.5c0-0.554 0.446-1 1-1h18c0.554 0 1 0.446 1 1v-0.5c0-0.554-0.446-1-1-1z" style="fill:#ffffff;opacity:.2"/>
  <path d="m3 22.5c-0.554 0-1-0.446-1-1v-0.5c0 0.554 0.446 1 1 1h18c0.554 0 1-0.446 1-1v0.5c0 0.554-0.446 1-1 1z" style="opacity:.2"/>
  <g style="opacity:.2">
   <path d="m16.848 7.1438128c-1.904 0.416-4.048 0.656-5.856 0.752l0.096-0.48c0.112-0.528 0.192-1.056 0.368-1.616l-2.2399998-0.096c0.016 0.528 0 0.912-0.08 1.6-0.016 0.192-0.064 0.4-0.096 0.64-0.96-0.016-2.16-0.144-3.104-0.304v1.968c0.8 0.08 1.728 0.144 2.736 0.16-0.416 1.7440002-1.056 3.8560002-1.808 5.3120002l1.872 0.672c0.16-0.272 0.272-0.48 0.448-0.688 0.9439998-1.216 2.5599998-1.872 4.3839998-1.872 1.536 0 2.368 0.8 2.368 1.744 0 2.336-3.504 2.752-6.9759998 2.192l0.56 2.048c5.1199998 0.544 8.5439998-0.736 8.5439998-4.304 0-2.016-1.696-3.392-4.256-3.392-1.456 0-2.656 0.288-3.9359998 0.992 0.2559998-0.768 0.5119998-1.776 0.7199998-2.7360002 2.128-0.112 4.64-0.416 6.288-0.672z"/>
  </g>
  <g style="fill:#ffffff">
   <path d="m16.848 6.6439063c-1.904 0.4159999-4.048 0.6559999-5.856 0.7519999l0.096-0.48c0.112-0.5279999 0.192-1.056 0.368-1.616l-2.2399998-0.096c0.016 0.528 0 0.912-0.08 1.6-0.016 0.192-0.064 0.4-0.096 0.64-0.96-0.016-2.16-0.144-3.104-0.304v1.968c0.8 0.08 1.728 0.144 2.736 0.16-0.416 1.7439998-1.056 3.8559998-1.808 5.3119998l1.872 0.672c0.16-0.272 0.272-0.48 0.448-0.688 0.9439998-1.216 2.5599998-1.872 4.3839998-1.872 1.536 0 2.368 0.8 2.368 1.744 0 2.336-3.504 2.752-6.9759998 2.192l0.56 2.048c5.1199998 0.544 8.5439998-0.736 8.5439998-4.304 0-2.016-1.696-3.392-4.256-3.392-1.456 0-2.656 0.288-3.9359998 0.992 0.2559998-0.768 0.5119998-1.776 0.7199998-2.7359998 2.128-0.112 4.64-0.416 6.288-0.6719999z"/>
  </g>
 </g>
</svg>

<svg xmlns="http://www.w3.org/2000/svg" width="22" height="22" version="1.1">
 <g transform="translate(-1,-1)">
  <rect style="opacity:0.2" width="20" height="20" x="2" y="2.5" rx="1" ry="1"/>
  <rect style="fill:#2095f2" width="20" height="20" x="2" y="2" rx="1" ry="1"/>
  <path style="opacity:0.2;fill:#ffffff" d="M 3,2 C 2.446,2 2,2.446 2,3 V 3.5 C 2,2.946 2.446,2.5 3,2.5 H 21 C 21.554,2.5 22,2.946 22,3.5 V 3 C 22,2.446 21.554,2 21,2 Z"/>
  <path style="opacity:0.2" d="M 16.848,7.1438 C 14.944,7.5598 12.8,7.7998 10.992,7.8958 L 11.088,7.4158 C 11.2,6.8878 11.28,6.3598 11.456,5.7998 L 9.216,5.7038 C 9.232,6.2318 9.216,6.6158 9.136,7.3038 9.12,7.4958 9.072,7.7038 9.04,7.9438 8.08,7.9278 6.88,7.7998 5.936,7.6398 V 9.6078 C 6.736,9.6878 7.664,9.7518 8.672,9.7678 8.256,11.512 7.616,13.624 6.864,15.08 L 8.736,15.752 C 8.896,15.48 9.008,15.272 9.184,15.064 10.128,13.848 11.744,13.192 13.568,13.192 15.104,13.192 15.936,13.992 15.936,14.936 15.936,17.272 12.432,17.688 8.96,17.128 L 9.52,19.176 C 14.64,19.72 18.064,18.44 18.064,14.872 18.064,12.856 16.368,11.48 13.808,11.48 12.352,11.48 11.152,11.768 9.872,12.472 10.128,11.704 10.384,10.696 10.592,9.7358 12.72,9.6238 15.232,9.3198 16.88,9.0638 Z"/>
  <path style="fill:#ffffff" d="M 16.848,6.644 C 14.944,7.06 12.8,7.3 10.992,7.396 L 11.088,6.916 C 11.2,6.388 11.28,5.86 11.456,5.3 L 9.216,5.204 C 9.232,5.732 9.216,6.116 9.136,6.804 9.12,6.996 9.072,7.204 9.04,7.444 8.08,7.428 6.88,7.3 5.936,7.14 V 9.108 C 6.736,9.188 7.664,9.252 8.672,9.268 8.256,11.012 7.616,13.124 6.864,14.58 L 8.736,15.252 C 8.896,14.98 9.008,14.772 9.184,14.564 10.128,13.348 11.744,12.692 13.568,12.692 15.104,12.692 15.936,13.492 15.936,14.436 15.936,16.772 12.432,17.188 8.96,16.628 L 9.52,18.676 C 14.64,19.22 18.064,17.94 18.064,14.372 18.064,12.356 16.368,10.98 13.808,10.98 12.352,10.98 11.152,11.268 9.872,11.972 10.128,11.204 10.384,10.196 10.592,9.236 12.72,9.124 15.232,8.82 16.88,8.564 Z"/>
 </g>
</svg>
